X:1
T:We Will Exalt You, Our God the King
T:Mitch Cervinka, 1998
T:We Will Exalt You, Our God the King
T:Public Domain
T:Public Domain
C:Mitch Cervinka, 1998
Z:Public Domain
%%score ( 1 2 ) 3
L:1/8
M:3/4
K:F
V:1 treble 
V:2 treble 
V:3 bass 
V:1
 C2 |"^F" [A,F]4 G2 |"^Dm" [FA]2 G2 F2 |"^C" [Ec]4 B2 |"^F" [FA]4 c2 |"^C" [Ec]2- [Ec]2 B2 | %6
w: 1.~We|ex- alt|our God the|ev- er|~ will|your * name.|
w: 2.~The|is great|most worthy of|great- ness|one can|ly * know.|
w: 3.~The|will speak|your ma- jes-|I will|der your|some * works.|
w: 4.~The|is gra-|and slow to|full of|cy and|in * grace.|
w: 5.~All|cre- a-|will praise you,|saints will|and de-|your * worth;|
w: 6.~Your|dom is|e- ter- nal|each~gen- er-|tion your|en- * dures;|
w: 7.~All|cre- a-|de- pends on|feed them|their ap-|ed * time,|
"^F" [FA]2 G2 F2 |"^G7" [=B,G]4 A2 |"^C" [EG]4 c2 |"^Bb" [Fd]4 d2 |"^Gm" [Bd]2 c2 B2 | %11
w: prais- es we|ev- er|Each day|will ~|ex- tol your|
w: age will tell|won- drous|And to|chil- dren|His glo- ries|
w: will re- joice|char- i-|And joy-|sing of|your right- eous-|
w: Lord is good|He has|And shows|pass- ion|in ev- ery|
w: joy- ful lips|might be|And king-|glo- ries|through- out the|
w: pro- mis- es|e'er re-|And He|blot out|our hum- ble|
w: Lord, are right-|all you|Let ev-|crea- ture|ex- alt your|
"^C" [Gc]4 B2 |"^Am" [CA]4 F2 |"^Bb" [B,D]4 D2 |"^C" [CE]2 F2 G2 |"^Bb7" [DA]6 |"^E dim" [B,G]6 | %17
w: ||||||
w: ||||||
w: ||||||
w: ||||||
w: ||||||
w: ||||||
w: ||||||
"^F" [A,F]6- | [A,F]2 z4 |] %19
w: ||
w: ||
w: ||
w: ||
w: ||
w: ||
w: ||
V:2
 C2 | x4 G2 | x2 G2 F2 | x4 B2 | x4 c2 | x4 B2 | x2 G2 F2 | x4 A2 | x4 c2 | x6 | x2 c2 B2 | x4 B2 | %12
w: will|you,|King; For|we|bless|Your|will for-|sing,|we||fame. *||
w: Lord|and|praise; His|no|ful-|Each|of His|ways|their||show. *||
w: saints|of|ty, And|pon-|awe-|They|in your|ty,|fully||ness. *||
w: Lord|cious|wrath, So|mer-|rich|The|to all|made,|com-||place. *||
w: your|tion|Lord; Your|sing|clare|From|will your|heard,|dom||earth. *||
w: king-|an|reign, Through|a-|throne|His|will for-|main,|will||tears. *||
w: your|tion|you, You|at|point-|You,|eous in|do,|ery||Name. *||
 x4 F2 | x6 | x2 F2 G2 | x6 | x6 | x6 | x6 |] %19
w: |||||||
w: |||||||
w: |||||||
w: |||||||
w: |||||||
w: |||||||
w: |||||||
V:3
 z2 | [F,,C,]6 | [A,,D,]6 | [G,,C,]6 | [F,,C,]6 | [G,,E,]6 | [F,,C,]6 | [G,,F,]6 | [C,G,]6 | %9
 [B,,F,]6 | [G,,D,]6 | [C,E,]6 | [A,,E,]6 | [G,,F,]6 | [C,G,]6 | [B,,F,]6 | [G,,E,]6 | [F,,C,]6- | %18
 [F,,C,]2 z4 |] %19

